X: 43080
T: Wind The Bobbin Up
R: barndance
M: 4/4
K: Gmajor
d2 de dBBc|d^cde dBBB|c2 Ac B2 GB|A2 DD D3 ^c|
d2 de dBBc|d^cde dBBB|c2 A2 B2 GB|AG F2 G4||
ABAF D4|GABc d2 B2|c2 A2 B2 GB|A2 A^G A3 B|
A2 AF D2 D2|GABc d2 AB|c2 A2 B2 GB|A2 F2 G4||

